src/assets/icons/cm-location.svg

<?xml version="1.0" encoding="UTF-8" standalone="no"?>
<svg width="26px" height="26px" viewBox="0 0 26 26" version="1.1" xmlns="http://www.w3.org/2000/svg" xmlns:xlink="http://www.w3.org/1999/xlink">
    <!-- Generator: Sketch 47.1 (45422) - http://www.bohemiancoding.com/sketch -->
    <title>ic_location</title>
    <desc>Created with Sketch.</desc>
    <defs></defs>
    <g id="DRAFTS_1" stroke="none" stroke-width="1" fill="none" fill-rule="evenodd">
        <g id="Assets" transform="translate(-503.000000, -253.000000)" fill="#13C1AC">
            <g id="Group-7" transform="translate(503.000000, 253.000000)">
                <path d="M7.92709134,5.70352801 C9.32441754,4.53650648 11.0935974,3.911003 12.9215582,3.911003 C13.3477203,3.911003 13.777077,3.94484787 14.2051559,4.01379114 C18.0706445,4.63616084 20.7994878,8.01563458 20.5535022,11.8745774 C20.1995384,17.4113488 14.230074,20.7174919 12.9023904,21.3856149 C11.5063421,20.6805133 5.25000089,17.1944908 5.23466673,11.4283264 C5.22891641,9.22402208 6.21030327,7.13754803 7.92709134,5.70352801 M12.3740005,22.5288197 C10.9715629,21.8281053 3.9740702,18.0011271 3.95681926,11.4314602 C3.9497911,8.85799599 5.09538135,6.42241829 7.09904618,4.7489771 C9.1078224,3.07114862 11.7721344,2.35225834 14.4121672,2.77719958 C18.9280802,3.5042377 22.1163096,7.44904626 21.8287939,11.9529221 C21.426272,18.241175 14.7635753,21.8657108 13.4320582,22.5281929 C13.2659381,22.6109248 13.0838448,22.6522908 12.9017515,22.6522908 C12.7202972,22.6522908 12.5394818,22.6109248 12.3740005,22.5288197 Z M12.9021349,8.29623369 C14.6636476,8.29623369 16.0967535,9.70204964 16.0967535,11.4300187 C16.0967535,13.1579877 14.6636476,14.5638037 12.9021349,14.5638037 C11.1406221,14.5638037 9.70751621,13.1579877 9.70751621,11.4300187 C9.70751621,9.70204964 11.1406221,8.29623369 12.9021349,8.29623369 Z M12.9021349,15.8173177 C15.3683805,15.8173177 17.374601,13.8493007 17.374601,11.4300187 C17.374601,9.01073667 15.3683805,7.04271969 12.9021349,7.04271969 C10.4358893,7.04271969 8.42966875,9.01073667 8.42966875,11.4300187 C8.42966875,13.8493007 10.4358893,15.8173177 12.9021349,15.8173177 Z" id="Combined-Shape"></path>
            </g>
        </g>
    </g>
</svg>

<svg width="26" height="26" viewBox="0 0 26 26" xmlns="http://www.w3.org/2000/svg"><path d="M7.927 5.704a7.779 7.779 0 0 1 4.995-1.793c.426 0 .855.034 1.283.103 3.866.622 6.594 4.002 6.349 7.86-.354 5.537-6.324 8.843-7.652 9.512-1.396-.705-7.652-4.192-7.667-9.958-.006-2.204.975-4.29 2.692-5.724m4.447 16.825c-1.402-.7-8.4-4.528-8.417-11.098C3.95 8.858 5.095 6.422 7.099 4.75c2.009-1.678 4.673-2.397 7.313-1.972 4.516.727 7.704 4.672 7.417 9.176-.403 6.288-7.065 9.913-8.397 10.575a1.19 1.19 0 0 1-1.058 0zm.528-14.233c1.762 0 3.195 1.406 3.195 3.134s-1.433 3.134-3.195 3.134c-1.761 0-3.194-1.406-3.194-3.134s1.433-3.134 3.194-3.134zm0 7.521c2.466 0 4.473-1.968 4.473-4.387 0-2.42-2.007-4.387-4.473-4.387-2.466 0-4.472 1.968-4.472 4.387 0 2.42 2.006 4.387 4.472 4.387z" fill="#13C1AC" fill-rule="evenodd"/></svg>
